assets/icons/privacy-icon.svg

<svg xmlns="http://www.w3.org/2000/svg" viewBox="0 0 24 24"><path d="M21,11C21,16.55 17.16,21.74 12,23C6.84,21.74 3,16.55 3,11V5L12,1L21,5V11M12,21C15.75,20 19,15.54 19,11.22V6.3L12,3.18L5,6.3V11.22C5,15.54 8.25,20 12,21M10,17L6,13L7.41,11.59L10,14.17L16.59,7.58L18,9" /></svg>

<?xml version="1.0" encoding="utf-8"?>
<!-- Generator: Adobe Illustrator 25.4.1, SVG Export Plug-In . SVG Version: 6.00 Build 0)  -->
<svg version="1.1" id="Layer_1" xmlns="http://www.w3.org/2000/svg" xmlns:xlink="http://www.w3.org/1999/xlink" x="0px" y="0px"
	 viewBox="0 0 24 24" style="enable-background:new 0 0 24 24;" xml:space="preserve">
<style type="text/css">
	.st0{fill:#FFFFFF;}
</style>
<path class="st0" d="M21,11c0,5.5-3.8,10.7-9,12c-5.2-1.3-9-6.5-9-12V5l9-4l9,4V11 M12,21c3.8-1,7-5.5,7-9.8V6.3l-7-3.1L5,6.3v4.9
	C5,15.5,8.2,20,12,21 M10,17l-4-4l1.4-1.4l2.6,2.6l6.6-6.6L18,9"/>
</svg>
